recipes/notion/icon.svg

<svg height="1024pt" viewBox="0 0 1024 1024" width="1024pt" xmlns="http://www.w3.org/2000/svg"><path d="m512 1024c282.769531 0 512-229.230469 512-512s-229.230469-512-512-512-512 229.230469-512 512 229.230469 512 512 512zm0 0" fill="#fff"/><path d="m607.152344 193.460938-355.195313 26.136718c-28.640625 2.476563-38.625 21.148438-38.625 43.53125v388.210938c0 17.441406 6.222657 32.351562 21.183594 52.277344l83.5 108.25c13.714844 17.433593 26.175781 21.160156 52.363281 19.914062l412.488282-24.890625c34.886718-2.476563 44.867187-18.664063 44.867187-46.039063v-436.746093c0-14.148438-5.601563-18.238281-22.121094-30.285157-.90625-.660156-1.851562-1.347656-2.824219-2.0625l-113.382812-79.632812c-27.414062-19.898438-38.636719-22.402344-82.253906-18.664062zm-227.417969 123.480468c-33.679687 2.273438-41.332031 2.789063-60.457031-12.738281l-48.632813-38.570313c-4.960937-4.988281-2.472656-11.207031 9.984375-12.441406l341.480469-24.886718c28.652344-2.496094 43.605469 7.476562 54.828125 16.179687l58.570312 42.308594c2.492188 1.242187 8.714844 8.695312 1.234376 8.695312l-352.660157 21.164063zm-39.28125 440.171875v-370.78125c0-16.171875 4.984375-23.644531 19.929687-24.902343l405.019532-23.632813c13.738281-1.242187 19.957031 7.472656 19.957031 23.632813v368.296874c0 16.1875-2.5 29.894532-24.9375 31.125l-387.574219 22.414063c-22.429687 1.230469-32.394531-6.222656-32.394531-26.152344zm382.609375-350.890625c2.484375 11.207032 0 22.40625-11.238281 23.667969l-18.675781 3.71875v273.734375c-16.210938 8.707031-31.164063 13.6875-43.621094 13.6875-19.945313 0-24.941406-6.226562-39.882813-24.882812l-122.148437-191.613282v185.394532l38.648437 8.714843s0 22.386719-31.179687 22.386719l-85.972656 4.984375c-2.496094-4.984375 0-17.417969 8.722656-19.910156l22.433594-6.210938v-245.128906l-31.148438-2.492187c-2.5-11.207032 3.722656-27.371094 21.183594-28.625l92.226562-6.210938 127.117188 194.109375v-171.71875l-32.410156-3.714844c-2.488282-13.703125 7.46875-23.65625 19.933593-24.890625zm0 0" fill-rule="evenodd"/></svg>

<?xml version="1.0" encoding="UTF-8"?>
<svg xmlns="http://www.w3.org/2000/svg" xmlns:xlink="http://www.w3.org/1999/xlink" width="1024pt" height="1024pt" viewBox="0 0 1024 1024" version="1.1">
<g id="surface1">
<path style=" stroke:none;fill-rule:nonzero;fill:rgb(100%,100%,100%);fill-opacity:1;" d="M 512 1024 C 794.769531 1024 1024 794.769531 1024 512 C 1024 229.230469 794.769531 0 512 0 C 229.230469 0 0 229.230469 0 512 C 0 794.769531 229.230469 1024 512 1024 Z M 512 1024 "/>
<path style=" stroke:none;fill-rule:evenodd;fill:rgb(0%,0%,0%);fill-opacity:1;" d="M 607.152344 193.460938 L 251.957031 219.597656 C 223.316406 222.074219 213.332031 240.746094 213.332031 263.128906 L 213.332031 651.339844 C 213.332031 668.78125 219.554688 683.691406 234.515625 703.617188 L 318.015625 811.867188 C 331.730469 829.300781 344.191406 833.027344 370.378906 831.78125 L 782.867188 806.890625 C 817.753906 804.414062 827.734375 788.226562 827.734375 760.851562 L 827.734375 324.105469 C 827.734375 309.957031 822.132812 305.867188 805.613281 293.820312 C 804.707031 293.160156 803.761719 292.472656 802.789062 291.757812 L 689.40625 212.125 C 661.992188 192.226562 650.769531 189.722656 607.152344 193.460938 Z M 379.734375 316.941406 C 346.054688 319.214844 338.402344 319.730469 319.277344 304.203125 L 270.644531 265.632812 C 265.683594 260.644531 268.171875 254.425781 280.628906 253.191406 L 622.109375 228.304688 C 650.761719 225.808594 665.714844 235.78125 676.9375 244.484375 L 735.507812 286.792969 C 738 288.035156 744.222656 295.488281 736.742188 295.488281 L 384.082031 316.652344 Z M 340.453125 757.113281 L 340.453125 386.332031 C 340.453125 370.160156 345.4375 362.6875 360.382812 361.429688 L 765.402344 337.796875 C 779.140625 336.554688 785.359375 345.269531 785.359375 361.429688 L 785.359375 729.726562 C 785.359375 745.914062 782.859375 759.621094 760.421875 760.851562 L 372.847656 783.265625 C 350.417969 784.496094 340.453125 777.042969 340.453125 757.113281 Z M 723.0625 406.222656 C 725.546875 417.429688 723.0625 428.628906 711.824219 429.890625 L 693.148438 433.609375 L 693.148438 707.34375 C 676.9375 716.050781 661.984375 721.03125 649.527344 721.03125 C 629.582031 721.03125 624.585938 714.804688 609.644531 696.148438 L 487.496094 504.535156 L 487.496094 689.929688 L 526.144531 698.644531 C 526.144531 698.644531 526.144531 721.03125 494.964844 721.03125 L 408.992188 726.015625 C 406.496094 721.03125 408.992188 708.597656 417.714844 706.105469 L 440.148438 699.894531 L 440.148438 454.765625 L 409 452.273438 C 406.5 441.066406 412.722656 424.902344 430.183594 423.648438 L 522.410156 417.4375 L 649.527344 611.546875 L 649.527344 439.828125 L 617.117188 436.113281 C 614.628906 422.410156 624.585938 412.457031 637.050781 411.222656 Z M 723.0625 406.222656 "/>
</g>
</svg>
